img/html-logo.svg

<svg width="27" height="34" viewBox="0 0 27 34" fill="none" xmlns="http://www.w3.org/2000/svg">
<g clip-path="url(#clip0)">
<path d="M13.62 0.0169551L13.472 0L0 1.40827V26.0042L13.473 34L26.903 26.0311L26.945 26.0062V1.40827L13.62 0.0169551ZM25.019 12.095L13.495 5.31992L13.494 5.21619L13.407 5.26606L13.319 5.21021V5.31892L1.925 12.086V3.13869L13.473 1.92989L25.02 3.13869V12.095H25.019ZM13.405 6.76908L24.923 13.4644L20.444 16.0974L13.351 11.8875L13.337 13.2988L19.241 16.8025L18.381 17.3082L13.351 14.3241L13.337 15.7353L17.164 18.0043L16.382 18.526L13.351 16.7437L13.337 18.1529L15.19 19.2411L13.39 20.3192L2.034 13.586L13.405 6.76908ZM1.925 15.0871L13.336 21.8601L13.352 22.9014L5.41 18.1859L5.395 19.5981L13.374 24.3805L13.392 25.4536L5.419 20.7261L5.406 22.1364L13.427 26.9457L13.473 26.9706L21.616 22.1115L21.605 16.9481L25.02 14.9175V24.9121L13.472 31.7659L1.925 24.9131V15.0871Z" fill="#F0C52E"/>
</g>
<defs>
<clipPath id="clip0">
<rect width="26.943" height="34" fill="white"/>
</clipPath>
</defs>
</svg>

<svg width="27" height="34" fill="none" xmlns="http://www.w3.org/2000/svg"><g clip-path="url(#clip0)"><path d="M13.62.02L13.47 0 0 1.4V26l13.47 8 13.43-7.97.05-.02V1.4L13.62 0zm11.4 12.07L13.49 5.33v-.1l-.08.05-.1-.06v.1L1.94 12.1V3.14l11.54-1.21 11.55 1.2v8.96zM13.4 6.78l11.52 6.7-4.48 2.63-7.09-4.21-.01 1.4 5.9 3.51-.86.5-5.03-2.98-.01 1.42L17.16 18l-.78.53-3.03-1.79-.01 1.41 1.85 1.1-1.8 1.07-11.36-6.73 11.38-6.82zM1.93 15.09l11.4 6.77.02 1.04-7.94-4.71-.02 1.4 7.98 4.8.02 1.06-7.97-4.72-.01 1.4 8.02 4.82.04.02 8.15-4.86-.02-5.16 3.42-2.03v10l-11.55 6.85L1.93 24.9V15.1z" fill="#F0C52E"/></g><defs><clipPath id="clip0"><path fill="#fff" d="M0 0h26.94v34H0z"/></clipPath></defs></svg>
